images/226125.svg

<?xml version="1.0" encoding="UTF-8"?>
<svg xmlns="http://www.w3.org/2000/svg" xmlns:xlink="http://www.w3.org/1999/xlink" width="300pt" height="300pt" viewBox="0 0 300 300" version="1.1">
<defs>
<g>
<symbol overflow="visible" id="glyph0-0">
<path style="stroke:none;" d="M 0.546875 1.9375 L 0.546875 -7.75 L 6.046875 -7.75 L 6.046875 1.9375 Z M 1.171875 1.328125 L 5.4375 1.328125 L 5.4375 -7.140625 L 1.171875 -7.140625 Z M 1.171875 1.328125 "/>
</symbol>
<symbol overflow="visible" id="glyph0-1">
<path style="stroke:none;" d="M 4.328125 -7.28125 C 3.546875 -7.28125 2.921875 -6.984375 2.453125 -6.390625 C 1.992188 -5.804688 1.765625 -5.007812 1.765625 -4 C 1.765625 -2.988281 1.992188 -2.1875 2.453125 -1.59375 C 2.921875 -1.007812 3.546875 -0.71875 4.328125 -0.71875 C 5.117188 -0.71875 5.742188 -1.007812 6.203125 -1.59375 C 6.660156 -2.1875 6.890625 -2.988281 6.890625 -4 C 6.890625 -5.007812 6.660156 -5.804688 6.203125 -6.390625 C 5.742188 -6.984375 5.117188 -7.28125 4.328125 -7.28125 Z M 4.328125 -8.171875 C 5.453125 -8.171875 6.351562 -7.789062 7.03125 -7.03125 C 7.707031 -6.28125 8.046875 -5.269531 8.046875 -4 C 8.046875 -2.738281 7.707031 -1.726562 7.03125 -0.96875 C 6.351562 -0.21875 5.453125 0.15625 4.328125 0.15625 C 3.203125 0.15625 2.300781 -0.21875 1.625 -0.96875 C 0.957031 -1.71875 0.625 -2.726562 0.625 -4 C 0.625 -5.269531 0.957031 -6.28125 1.625 -7.03125 C 2.300781 -7.789062 3.203125 -8.171875 4.328125 -8.171875 Z M 4.328125 -8.171875 "/>
</symbol>
<symbol overflow="visible" id="glyph0-2">
<path style="stroke:none;" d="M 1.078125 -8.015625 L 2.171875 -8.015625 L 2.171875 -4.734375 L 6.109375 -4.734375 L 6.109375 -8.015625 L 7.1875 -8.015625 L 7.1875 0 L 6.109375 0 L 6.109375 -3.8125 L 2.171875 -3.8125 L 2.171875 0 L 1.078125 0 Z M 1.078125 -8.015625 "/>
</symbol>
<symbol overflow="visible" id="glyph0-3">
<path style="stroke:none;" d="M 1.078125 -8.015625 L 2.546875 -8.015625 L 6.09375 -1.3125 L 6.09375 -8.015625 L 7.15625 -8.015625 L 7.15625 0 L 5.6875 0 L 2.125 -6.703125 L 2.125 0 L 1.078125 0 Z M 1.078125 -8.015625 "/>
</symbol>
</g>
</defs>
<g id="surface12037">
<rect x="0" y="0" width="300" height="300" style="fill:rgb(100%,100%,100%);fill-opacity:1;stroke:none;"/>
<path style=" stroke:none;fill-rule:nonzero;fill:rgb(0%,0%,0%);fill-opacity:1;" d="M 146.449219 111.273438 L 148.089844 139.191406 L 157.546875 136.941406 Z M 146.449219 111.273438 "/>
<path style=" stroke:none;fill-rule:nonzero;fill:rgb(100%,100%,100%);fill-opacity:1;" d="M 144.820312 131.566406 L 161.820312 131.566406 L 161.820312 144.566406 L 144.820312 144.566406 Z M 144.820312 131.566406 "/>
<g style="fill:rgb(100%,0%,0%);fill-opacity:1;">
  <use xlink:href="#glyph0-1" x="144.820312" y="141.467773"/>
  <use xlink:href="#glyph0-2" x="153.220703" y="141.467773"/>
</g>
<path style="fill:none;stroke-width:1.2;stroke-linecap:butt;stroke-linejoin:miter;stroke:rgb(0%,0%,0%);stroke-opacity:1;stroke-miterlimit:10;" d="M 146.449219 111.273438 L 120.058594 103.394531 "/>
<path style="fill:none;stroke-width:1.2;stroke-linecap:butt;stroke-linejoin:miter;stroke:rgb(0%,0%,0%);stroke-opacity:1;stroke-miterlimit:10;" d="M 146.449219 111.273438 L 166.464844 92.359375 "/>
<path style=" stroke:none;fill-rule:nonzero;fill:rgb(0%,0%,0%);fill-opacity:1;" d="M 120.058594 103.394531 L 96.703125 118.777344 L 103.378906 125.84375 Z M 120.058594 103.394531 "/>
<path style="fill:none;stroke-width:1.2;stroke-linecap:butt;stroke-linejoin:miter;stroke:rgb(0%,0%,0%);stroke-opacity:1;stroke-miterlimit:10;" d="M 120.058594 103.394531 L 113.683594 76.601562 "/>
<path style="fill:none;stroke-width:1.2;stroke-linecap:butt;stroke-linejoin:miter;stroke:rgb(0%,0%,100%);stroke-opacity:1;stroke-miterlimit:10;" d="M 100.042969 122.3125 L 103.226562 135.707031 "/>
<path style="fill:none;stroke-width:1.2;stroke-linecap:butt;stroke-linejoin:miter;stroke:rgb(0%,0%,0%);stroke-opacity:1;stroke-miterlimit:10;" d="M 103.226562 135.707031 L 106.414062 149.101562 "/>
<path style=" stroke:none;fill-rule:nonzero;fill:rgb(100%,100%,100%);fill-opacity:1;" d="M 92.042969 115.8125 L 109.042969 115.8125 L 109.042969 128.8125 L 92.042969 128.8125 Z M 92.042969 115.8125 "/>
<g style="fill:rgb(0%,0%,100%);fill-opacity:1;">
  <use xlink:href="#glyph0-3" x="92.042969" y="125.713867"/>
  <use xlink:href="#glyph0-2" x="100.026367" y="125.713867"/>
</g>
<path style="fill:none;stroke-width:1.2;stroke-linecap:butt;stroke-linejoin:miter;stroke:rgb(0%,0%,0%);stroke-opacity:1;stroke-miterlimit:10;" d="M 106.414062 149.101562 L 119.609375 153.042969 "/>
<path style="fill:none;stroke-width:1.2;stroke-linecap:butt;stroke-linejoin:miter;stroke:rgb(0%,0%,100%);stroke-opacity:1;stroke-miterlimit:10;" d="M 119.609375 153.042969 L 132.804688 156.980469 "/>
<path style="fill:none;stroke-width:1.2;stroke-linecap:butt;stroke-linejoin:miter;stroke:rgb(0%,0%,0%);stroke-opacity:1;stroke-miterlimit:10;" d="M 107.199219 156.101562 L 117.753906 159.25 "/>
<path style="fill:none;stroke-width:1.2;stroke-linecap:butt;stroke-linejoin:miter;stroke:rgb(0%,0%,100%);stroke-opacity:1;stroke-miterlimit:10;" d="M 117.753906 159.25 L 128.308594 162.402344 "/>
<path style="fill:none;stroke-width:1.2;stroke-linecap:butt;stroke-linejoin:miter;stroke:rgb(0%,0%,100%);stroke-opacity:1;stroke-miterlimit:10;" d="M 86.398438 168.019531 L 96.40625 158.5625 "/>
<path style="fill:none;stroke-width:1.2;stroke-linecap:butt;stroke-linejoin:miter;stroke:rgb(0%,0%,0%);stroke-opacity:1;stroke-miterlimit:10;" d="M 96.40625 158.5625 L 106.414062 149.101562 "/>
<path style="fill:none;stroke-width:1.2;stroke-linecap:butt;stroke-linejoin:miter;stroke:rgb(0%,0%,100%);stroke-opacity:1;stroke-miterlimit:10;" d="M 132.804688 156.980469 L 135.988281 170.378906 "/>
<path style="fill:none;stroke-width:1.2;stroke-linecap:butt;stroke-linejoin:miter;stroke:rgb(0%,0%,0%);stroke-opacity:1;stroke-miterlimit:10;" d="M 135.988281 170.378906 L 139.175781 183.773438 "/>
<path style=" stroke:none;fill-rule:nonzero;fill:rgb(100%,100%,100%);fill-opacity:1;" d="M 128.804688 150.480469 L 136.804688 150.480469 L 136.804688 163.480469 L 128.804688 163.480469 Z M 128.804688 150.480469 "/>
<g style="fill:rgb(0%,0%,100%);fill-opacity:1;">
  <use xlink:href="#glyph0-3" x="128.804688" y="160.381836"/>
</g>
<path style="fill:none;stroke-width:1.2;stroke-linecap:butt;stroke-linejoin:miter;stroke:rgb(0%,0%,0%);stroke-opacity:1;stroke-miterlimit:10;" d="M 139.175781 183.773438 L 152.371094 187.710938 "/>
<path style="fill:none;stroke-width:1.2;stroke-linecap:butt;stroke-linejoin:miter;stroke:rgb(0%,0%,100%);stroke-opacity:1;stroke-miterlimit:10;" d="M 152.371094 187.710938 L 165.566406 191.652344 "/>
<path style="fill:none;stroke-width:1.2;stroke-linecap:butt;stroke-linejoin:miter;stroke:rgb(0%,0%,0%);stroke-opacity:1;stroke-miterlimit:10;" d="M 139.175781 183.773438 L 119.160156 202.6875 "/>
<path style="fill:none;stroke-width:1.2;stroke-linecap:butt;stroke-linejoin:miter;stroke:rgb(0%,0%,0%);stroke-opacity:1;stroke-miterlimit:10;" d="M 132.722656 180.957031 L 116.710938 196.085938 "/>
<path style="fill:none;stroke-width:1.2;stroke-linecap:butt;stroke-linejoin:miter;stroke:rgb(0%,0%,100%);stroke-opacity:1;stroke-miterlimit:10;" d="M 165.566406 191.652344 L 175.574219 182.195312 "/>
<path style="fill:none;stroke-width:1.2;stroke-linecap:butt;stroke-linejoin:miter;stroke:rgb(0%,0%,0%);stroke-opacity:1;stroke-miterlimit:10;" d="M 175.574219 182.195312 L 185.582031 172.734375 "/>
<path style=" stroke:none;fill-rule:nonzero;fill:rgb(100%,100%,100%);fill-opacity:1;" d="M 157.566406 185.152344 L 174.566406 185.152344 L 174.566406 198.152344 L 157.566406 198.152344 Z M 157.566406 185.152344 "/>
<g style="fill:rgb(0%,0%,100%);fill-opacity:1;">
  <use xlink:href="#glyph0-3" x="157.566406" y="195.053711"/>
  <use xlink:href="#glyph0-2" x="165.549805" y="195.053711"/>
</g>
<path style="fill:none;stroke-width:1.2;stroke-linecap:butt;stroke-linejoin:miter;stroke:rgb(0%,0%,0%);stroke-opacity:1;stroke-miterlimit:10;" d="M 185.582031 172.734375 L 211.972656 180.613281 "/>
<path style="fill:none;stroke-width:1.2;stroke-linecap:butt;stroke-linejoin:miter;stroke:rgb(0%,0%,0%);stroke-opacity:1;stroke-miterlimit:10;" d="M 211.972656 180.613281 L 215.15625 194.011719 "/>
<path style="fill:none;stroke-width:1.2;stroke-linecap:butt;stroke-linejoin:miter;stroke:rgb(0%,0%,100%);stroke-opacity:1;stroke-miterlimit:10;" d="M 215.15625 194.011719 L 218.34375 207.40625 "/>
<path style="fill:none;stroke-width:1.2;stroke-linecap:butt;stroke-linejoin:miter;stroke:rgb(0%,0%,0%);stroke-opacity:1;stroke-miterlimit:10;" d="M 218.914062 181.792969 L 221.460938 192.511719 "/>
<path style="fill:none;stroke-width:1.2;stroke-linecap:butt;stroke-linejoin:miter;stroke:rgb(0%,0%,100%);stroke-opacity:1;stroke-miterlimit:10;" d="M 221.460938 192.511719 L 224.011719 203.226562 "/>
<path style="fill:none;stroke-width:1.2;stroke-linecap:butt;stroke-linejoin:miter;stroke:rgb(0%,0%,0%);stroke-opacity:1;stroke-miterlimit:10;" d="M 231.988281 161.699219 L 211.972656 180.613281 "/>
<path style="fill:none;stroke-width:1.2;stroke-linecap:butt;stroke-linejoin:miter;stroke:rgb(0%,0%,100%);stroke-opacity:1;stroke-miterlimit:10;" d="M 218.34375 207.40625 L 231.539062 211.34375 "/>
<path style="fill:none;stroke-width:1.2;stroke-linecap:butt;stroke-linejoin:miter;stroke:rgb(0%,0%,0%);stroke-opacity:1;stroke-miterlimit:10;" d="M 231.539062 211.34375 L 244.734375 215.285156 "/>
<path style=" stroke:none;fill-rule:nonzero;fill:rgb(100%,100%,100%);fill-opacity:1;" d="M 214.34375 200.90625 L 222.34375 200.90625 L 222.34375 213.90625 L 214.34375 213.90625 Z M 214.34375 200.90625 "/>
<g style="fill:rgb(0%,0%,100%);fill-opacity:1;">
  <use xlink:href="#glyph0-3" x="214.34375" y="210.807617"/>
</g>
<path style="fill:none;stroke-width:1.2;stroke-linecap:butt;stroke-linejoin:miter;stroke:rgb(0%,0%,0%);stroke-opacity:1;stroke-miterlimit:10;" d="M 244.734375 215.285156 L 264.75 196.371094 "/>
<path style="fill:none;stroke-width:1.2;stroke-linecap:butt;stroke-linejoin:miter;stroke:rgb(0%,0%,0%);stroke-opacity:1;stroke-miterlimit:10;" d="M 242.285156 208.683594 L 258.296875 193.550781 "/>
<path style="fill:none;stroke-width:1.2;stroke-linecap:butt;stroke-linejoin:miter;stroke:rgb(0%,0%,0%);stroke-opacity:1;stroke-miterlimit:10;" d="M 244.734375 215.285156 L 251.105469 242.078125 "/>
<path style="fill:none;stroke-width:1.2;stroke-linecap:butt;stroke-linejoin:miter;stroke:rgb(0%,0%,0%);stroke-opacity:1;stroke-miterlimit:10;" d="M 264.75 196.371094 L 258.378906 169.578125 "/>
<path style="fill:none;stroke-width:1.2;stroke-linecap:butt;stroke-linejoin:miter;stroke:rgb(0%,0%,0%);stroke-opacity:1;stroke-miterlimit:10;" d="M 258.378906 169.578125 L 231.988281 161.699219 "/>
<path style="fill:none;stroke-width:1.2;stroke-linecap:butt;stroke-linejoin:miter;stroke:rgb(0%,0%,0%);stroke-opacity:1;stroke-miterlimit:10;" d="M 253.886719 174.996094 L 232.773438 168.695312 "/>
<path style="fill:none;stroke-width:1.2;stroke-linecap:butt;stroke-linejoin:miter;stroke:rgb(0%,0%,0%);stroke-opacity:1;stroke-miterlimit:10;" d="M 119.160156 202.6875 L 119.488281 216.453125 "/>
<path style="fill:none;stroke-width:1.2;stroke-linecap:butt;stroke-linejoin:miter;stroke:rgb(0%,0%,100%);stroke-opacity:1;stroke-miterlimit:10;" d="M 119.488281 216.453125 L 119.820312 230.222656 "/>
<path style="fill:none;stroke-width:1.2;stroke-linecap:butt;stroke-linejoin:miter;stroke:rgb(0%,0%,0%);stroke-opacity:1;stroke-miterlimit:10;" d="M 92.769531 194.8125 L 119.160156 202.6875 "/>
<path style="fill:none;stroke-width:1.2;stroke-linecap:butt;stroke-linejoin:miter;stroke:rgb(0%,0%,100%);stroke-opacity:1;stroke-miterlimit:10;" d="M 119.820312 230.222656 L 106.832031 234.789062 "/>
<path style="fill:none;stroke-width:1.2;stroke-linecap:butt;stroke-linejoin:miter;stroke:rgb(0%,0%,0%);stroke-opacity:1;stroke-miterlimit:10;" d="M 106.832031 234.789062 L 93.839844 239.359375 "/>
<path style="fill:none;stroke-width:1.2;stroke-linecap:butt;stroke-linejoin:miter;stroke:rgb(0%,0%,100%);stroke-opacity:1;stroke-miterlimit:10;" d="M 115.074219 225.023438 L 104.679688 228.675781 "/>
<path style="fill:none;stroke-width:1.2;stroke-linecap:butt;stroke-linejoin:miter;stroke:rgb(0%,0%,0%);stroke-opacity:1;stroke-miterlimit:10;" d="M 104.679688 228.675781 L 94.289062 232.332031 "/>
<path style=" stroke:none;fill-rule:nonzero;fill:rgb(100%,100%,100%);fill-opacity:1;" d="M 115.820312 223.722656 L 123.820312 223.722656 L 123.820312 236.722656 L 115.820312 236.722656 Z M 115.820312 223.722656 "/>
<g style="fill:rgb(0%,0%,100%);fill-opacity:1;">
  <use xlink:href="#glyph0-3" x="115.820312" y="233.624023"/>
</g>
<path style="fill:none;stroke-width:1.2;stroke-linecap:butt;stroke-linejoin:miter;stroke:rgb(0%,0%,0%);stroke-opacity:1;stroke-miterlimit:10;" d="M 93.839844 239.359375 L 85.480469 228.417969 "/>
<path style="fill:none;stroke-width:1.2;stroke-linecap:butt;stroke-linejoin:miter;stroke:rgb(0%,0%,100%);stroke-opacity:1;stroke-miterlimit:10;" d="M 85.480469 228.417969 L 77.121094 217.476562 "/>
<path style="fill:none;stroke-width:1.2;stroke-linecap:butt;stroke-linejoin:miter;stroke:rgb(0%,0%,100%);stroke-opacity:1;stroke-miterlimit:10;" d="M 77.121094 217.476562 L 84.945312 206.144531 "/>
<path style="fill:none;stroke-width:1.2;stroke-linecap:butt;stroke-linejoin:miter;stroke:rgb(0%,0%,0%);stroke-opacity:1;stroke-miterlimit:10;" d="M 84.945312 206.144531 L 92.769531 194.8125 "/>
<path style="fill:none;stroke-width:1.2;stroke-linecap:butt;stroke-linejoin:miter;stroke:rgb(0%,0%,100%);stroke-opacity:1;stroke-miterlimit:10;" d="M 77.121094 217.476562 L 63.355469 217.804688 "/>
<path style="fill:none;stroke-width:1.2;stroke-linecap:butt;stroke-linejoin:miter;stroke:rgb(0%,0%,0%);stroke-opacity:1;stroke-miterlimit:10;" d="M 63.355469 217.804688 L 49.589844 218.136719 "/>
<path style=" stroke:none;fill-rule:nonzero;fill:rgb(100%,100%,100%);fill-opacity:1;" d="M 73.121094 210.976562 L 81.121094 210.976562 L 81.121094 223.976562 L 73.121094 223.976562 Z M 73.121094 210.976562 "/>
<g style="fill:rgb(0%,0%,100%);fill-opacity:1;">
  <use xlink:href="#glyph0-3" x="73.121094" y="220.87793"/>
</g>
<path style="fill:none;stroke-width:1.2;stroke-linecap:butt;stroke-linejoin:miter;stroke:rgb(0%,0%,0%);stroke-opacity:1;stroke-miterlimit:10;" d="M 92.769531 194.8125 L 89.582031 181.414062 "/>
<path style="fill:none;stroke-width:1.2;stroke-linecap:butt;stroke-linejoin:miter;stroke:rgb(0%,0%,100%);stroke-opacity:1;stroke-miterlimit:10;" d="M 89.582031 181.414062 L 86.398438 168.019531 "/>
<path style="fill:none;stroke-width:1.2;stroke-linecap:butt;stroke-linejoin:miter;stroke:rgb(0%,0%,0%);stroke-opacity:1;stroke-miterlimit:10;" d="M 98.4375 190.632812 L 95.886719 179.914062 "/>
<path style="fill:none;stroke-width:1.2;stroke-linecap:butt;stroke-linejoin:miter;stroke:rgb(0%,0%,100%);stroke-opacity:1;stroke-miterlimit:10;" d="M 95.886719 179.914062 L 93.339844 169.199219 "/>
<path style=" stroke:none;fill-rule:nonzero;fill:rgb(100%,100%,100%);fill-opacity:1;" d="M 82.398438 161.519531 L 90.398438 161.519531 L 90.398438 174.519531 L 82.398438 174.519531 Z M 82.398438 161.519531 "/>
<g style="fill:rgb(0%,0%,100%);fill-opacity:1;">
  <use xlink:href="#glyph0-3" x="82.398438" y="171.420898"/>
</g>
<path style="fill:none;stroke-width:1.2;stroke-linecap:butt;stroke-linejoin:miter;stroke:rgb(0%,0%,0%);stroke-opacity:1;stroke-miterlimit:10;" d="M 49.589844 218.136719 L 36.398438 242.3125 "/>
<path style="fill:none;stroke-width:1.2;stroke-linecap:butt;stroke-linejoin:miter;stroke:rgb(0%,0%,0%);stroke-opacity:1;stroke-miterlimit:10;" d="M 49.589844 218.136719 L 35.25 194.625 "/>
<path style="fill:none;stroke-width:1.2;stroke-linecap:butt;stroke-linejoin:miter;stroke:rgb(0%,0%,0%);stroke-opacity:1;stroke-miterlimit:10;" d="M 113.683594 76.601562 L 133.703125 57.6875 "/>
</g>
</svg>

<svg xmlns="http://www.w3.org/2000/svg" xmlns:xlink="http://www.w3.org/1999/xlink" width="300pt" height="300pt" viewBox="0 0 300 300"><defs><symbol overflow="visible"><path d="M.547 1.938V-7.75h5.5v9.688zm.625-.61h4.266v-8.47H1.171zm0 0"/></symbol><symbol overflow="visible" id="a"><path d="M4.328-7.28c-.78 0-1.406.296-1.875.89-.46.585-.687 1.382-.687 2.39 0 1.012.226 1.813.687 2.406.47.586 1.094.875 1.875.875.79 0 1.414-.288 1.875-.874.457-.593.688-1.394.688-2.406 0-1.008-.23-1.805-.687-2.39-.46-.594-1.086-.89-1.875-.89zm0-.892c1.125 0 2.024.383 2.703 1.14C7.708-6.28 8.048-5.27 8.048-4c0 1.262-.34 2.273-1.016 3.03C6.353-.22 5.454.157 4.33.157S2.3-.22 1.625-.97c-.668-.75-1-1.757-1-3.03 0-1.27.332-2.28 1-3.03.676-.76 1.578-1.142 2.703-1.142zm0 0"/></symbol><symbol overflow="visible" id="b"><path d="M1.078-8.016h1.094v3.282H6.11v-3.282h1.077V0H6.11v-3.813H2.17V0H1.078zm0 0"/></symbol><symbol overflow="visible" id="c"><path d="M1.078-8.016h1.47l3.546 6.704v-6.704h1.062V0H5.688L2.124-6.703V0H1.078zm0 0"/></symbol></defs><g><path fill="#fff" d="M0 0h300v300H0z"/><path d="M146.45 111.273l1.64 27.918 9.457-2.25zm0 0"/><path d="M144.82 131.566h17v13h-17zm0 0" fill="#fff"/><g fill="#f00"><use xlink:href="#a" x="144.82" y="141.468"/><use xlink:href="#b" x="153.221" y="141.468"/></g><path d="M146.45 111.273l-26.39-7.878M146.45 111.273l20.015-18.914" stroke-width="1.2" stroke="#000" stroke-miterlimit="10" fill="none"/><path d="M120.06 103.395l-23.357 15.382 6.676 7.067zm0 0"/><path d="M120.06 103.395l-6.376-26.793" stroke-width="1.2" stroke="#000" stroke-miterlimit="10" fill="none"/><path d="M100.043 122.313l3.184 13.394" stroke-width="1.2" stroke="#00f" stroke-miterlimit="10" fill="none"/><path d="M103.227 135.707l3.187 13.395" stroke-width="1.2" stroke="#000" stroke-miterlimit="10" fill="none"/><path d="M92.043 115.813h17v13h-17zm0 0" fill="#fff"/><g fill="#00f"><use xlink:href="#c" x="92.043" y="125.714"/><use xlink:href="#b" x="100.026" y="125.714"/></g><path d="M106.414 149.102l13.195 3.94" stroke-width="1.2" stroke="#000" stroke-miterlimit="10" fill="none"/><path d="M119.61 153.043l13.195 3.937" stroke-width="1.2" stroke="#00f" stroke-miterlimit="10" fill="none"/><path d="M107.2 156.102l10.554 3.148" stroke-width="1.2" stroke="#000" stroke-miterlimit="10" fill="none"/><path d="M117.754 159.25l10.555 3.152M86.398 168.02l10.008-9.458" stroke-width="1.2" stroke="#00f" stroke-miterlimit="10" fill="none"/><path d="M96.406 158.563l10.008-9.46" stroke-width="1.2" stroke="#000" stroke-miterlimit="10" fill="none"/><path d="M132.805 156.98l3.183 13.4" stroke-width="1.2" stroke="#00f" stroke-miterlimit="10" fill="none"/><path d="M135.988 170.38l3.188 13.393" stroke-width="1.2" stroke="#000" stroke-miterlimit="10" fill="none"/><path d="M128.805 150.48h8v13h-8zm0 0" fill="#fff"/><use xlink:href="#c" x="128.805" y="160.382" fill="#00f"/><path d="M139.176 183.773l13.195 3.938" stroke-width="1.2" stroke="#000" stroke-miterlimit="10" fill="none"/><path d="M152.37 187.71l13.196 3.942" stroke-width="1.2" stroke="#00f" stroke-miterlimit="10" fill="none"/><path d="M139.176 183.773l-20.016 18.915M132.723 180.957l-16.012 15.13" stroke-width="1.2" stroke="#000" stroke-miterlimit="10" fill="none"/><path d="M165.566 191.652l10.008-9.457" stroke-width="1.2" stroke="#00f" stroke-miterlimit="10" fill="none"/><path d="M175.574 182.195l10.008-9.46" stroke-width="1.2" stroke="#000" stroke-miterlimit="10" fill="none"/><path d="M157.566 185.152h17v13h-17zm0 0" fill="#fff"/><g fill="#00f"><use xlink:href="#c" x="157.566" y="195.054"/><use xlink:href="#b" x="165.55" y="195.054"/></g><path d="M185.582 172.734l26.39 7.88M211.973 180.613l3.183 13.4" stroke-width="1.2" stroke="#000" stroke-miterlimit="10" fill="none"/><path d="M215.156 194.012l3.188 13.394" stroke-width="1.2" stroke="#00f" stroke-miterlimit="10" fill="none"/><path d="M218.914 181.793l2.547 10.72" stroke-width="1.2" stroke="#000" stroke-miterlimit="10" fill="none"/><path d="M221.46 192.512l2.552 10.715" stroke-width="1.2" stroke="#00f" stroke-miterlimit="10" fill="none"/><path d="M231.988 161.7l-20.015 18.913" stroke-width="1.2" stroke="#000" stroke-miterlimit="10" fill="none"/><path d="M218.344 207.406l13.195 3.938" stroke-width="1.2" stroke="#00f" stroke-miterlimit="10" fill="none"/><path d="M231.54 211.344l13.194 3.94" stroke-width="1.2" stroke="#000" stroke-miterlimit="10" fill="none"/><path d="M214.344 200.906h8v13h-8zm0 0" fill="#fff"/><use xlink:href="#c" x="214.344" y="210.808" fill="#00f"/><path d="M244.734 215.285l20.016-18.914M242.285 208.684l16.012-15.133M244.734 215.285l6.37 26.793M264.75 196.37l-6.37-26.792M258.38 169.578l-26.392-7.88M253.887 174.996l-21.114-6.3M119.16 202.688l.328 13.765" stroke-width="1.2" stroke="#000" stroke-miterlimit="10" fill="none"/><path d="M119.488 216.453l.332 13.77" stroke-width="1.2" stroke="#00f" stroke-miterlimit="10" fill="none"/><path d="M92.77 194.813l26.39 7.875" stroke-width="1.2" stroke="#000" stroke-miterlimit="10" fill="none"/><path d="M119.82 230.223l-12.988 4.566" stroke-width="1.2" stroke="#00f" stroke-miterlimit="10" fill="none"/><path d="M106.832 234.79l-12.992 4.57" stroke-width="1.2" stroke="#000" stroke-miterlimit="10" fill="none"/><path d="M115.074 225.023l-10.394 3.653" stroke-width="1.2" stroke="#00f" stroke-miterlimit="10" fill="none"/><path d="M104.68 228.676l-10.39 3.656" stroke-width="1.2" stroke="#000" stroke-miterlimit="10" fill="none"/><path d="M115.82 223.723h8v13h-8zm0 0" fill="#fff"/><use xlink:href="#c" x="115.82" y="233.624" fill="#00f"/><path d="M93.84 239.36l-8.36-10.942" stroke-width="1.2" stroke="#000" stroke-miterlimit="10" fill="none"/><path d="M85.48 228.418l-8.36-10.94M77.12 217.477l7.825-11.332" stroke-width="1.2" stroke="#00f" stroke-miterlimit="10" fill="none"/><path d="M84.945 206.145l7.825-11.333" stroke-width="1.2" stroke="#000" stroke-miterlimit="10" fill="none"/><path d="M77.12 217.477l-13.765.328" stroke-width="1.2" stroke="#00f" stroke-miterlimit="10" fill="none"/><path d="M63.355 217.805l-13.765.332" stroke-width="1.2" stroke="#000" stroke-miterlimit="10" fill="none"/><path d="M73.12 210.977h8v13h-8zm0 0" fill="#fff"/><use xlink:href="#c" x="73.121" y="220.878" fill="#00f"/><path d="M92.77 194.813l-3.188-13.4" stroke-width="1.2" stroke="#000" stroke-miterlimit="10" fill="none"/><path d="M89.582 181.414l-3.184-13.394" stroke-width="1.2" stroke="#00f" stroke-miterlimit="10" fill="none"/><path d="M98.438 190.633l-2.55-10.72" stroke-width="1.2" stroke="#000" stroke-miterlimit="10" fill="none"/><path d="M95.887 179.914L93.34 169.2" stroke-width="1.2" stroke="#00f" stroke-miterlimit="10" fill="none"/><path d="M82.398 161.52h8v13h-8zm0 0" fill="#fff"/><use xlink:href="#c" x="82.398" y="171.421" fill="#00f"/><path d="M49.59 218.137l-13.192 24.175M49.59 218.137l-14.34-23.512M113.684 76.602l20.02-18.915" stroke-width="1.2" stroke="#000" stroke-miterlimit="10" fill="none"/></g></svg>
